X:988
T:Mist In the Meadow, The
S:Book-Mike Rafferty, Second Wind
Z:Nigel Gatherer
L:1/8
M:6/8
K:G
gdB BAB | GBA GBd | gdB BAB | GBd ezd |
gdB BAB | GBA GBd | gfe fdB | ABd ezd :|
g3  bag | fdf afd | g3  bag | afd e2d |
g3  bag | fdf afd | gfe fdB | ABd e2d :|
<end>
<start>
